images/Cli_PA_1.svg

<svg width="58" height="35" viewBox="0 0 58 35" fill="none" xmlns="http://www.w3.org/2000/svg">
<path d="M0.107415 34.8208C0.166494 34.7222 0.699318 33.7487 1.29147 32.6574C1.88362 31.566 3.03545 29.4454 3.85109 27.9448C4.66674 26.4442 6.06438 23.8709 6.95696 22.2264L8.57983 19.2364L9.74147 19.2363L10.9031 19.2362L11.2999 22.0059C12.216 28.4013 13.1251 34.7071 13.1513 34.8483L13.1794 34.9999H12.0051H10.8307L10.5947 33.3424C10.4649 32.4307 10.3462 31.6368 10.3308 31.5781C10.3036 31.474 10.2304 31.4718 7.35155 31.4857L4.40016 31.4999L3.4082 33.2499L2.41624 34.9999H1.20812H0L0.107415 34.8208ZM10.0471 29.3528C10.0776 29.3223 9.25252 22.6725 9.21369 22.6361C9.19853 22.6219 8.78475 23.3455 8.29418 24.2441C7.80361 25.1427 6.98823 26.6344 6.48224 27.559C5.97624 28.4836 5.55026 29.2711 5.53562 29.309C5.50971 29.376 9.98048 29.4195 10.0471 29.3528ZM30.1674 32.2063C29.9263 32.1905 29.8257 32.1629 29.8425 32.1172C29.8559 32.0808 29.925 31.747 29.9961 31.3754L30.1253 30.6998L30.4037 30.7416C31.0518 30.8388 31.4 30.7466 31.6831 30.4025C32.0601 29.9442 32.0805 30.2592 31.4474 26.7598C31.1347 25.0318 30.878 23.5994 30.877 23.5767C30.8759 23.554 31.2791 23.5354 31.773 23.5354H32.6709L32.9363 25.7814C33.0822 27.0167 33.2134 28.0647 33.2278 28.1101C33.2546 28.1944 33.6758 27.3532 35.1666 24.2381L35.503 23.5354H36.4193C37.1602 23.5354 37.3302 23.5494 37.3074 23.6088C37.2919 23.6492 36.9467 24.2755 36.5402 25.0006C36.1338 25.7256 35.1951 27.4047 34.4543 28.732C32.985 31.3643 32.847 31.5789 32.4527 31.8439C31.9938 32.1523 31.2179 32.2754 30.1674 32.2063ZM21.937 30.0932C20.6406 29.8744 20.0403 28.7069 20.6193 27.5307C21.018 26.7209 21.7533 26.3854 23.5168 26.2087C25.0587 26.0542 25.3641 25.8893 25.2921 25.2506C25.1819 24.2722 23.1562 24.328 22.9082 25.3163L22.871 25.4645H22.0458H21.2206L21.2571 25.2854C21.5494 23.8511 23.4098 23.0365 25.3907 23.4756C27.0126 23.8351 27.1891 24.4486 26.5179 27.3936C26.2286 28.6628 26.1716 28.9968 26.1674 29.4467L26.1625 29.9841L25.2943 29.9841L24.4262 29.9842V29.6753V29.3664L24.2221 29.5457C23.7017 30.0026 22.7504 30.2305 21.937 30.0932ZM23.5388 28.9329C24.1285 28.8065 24.4782 28.4084 24.7657 27.5367C24.9933 26.8461 24.9934 26.8579 24.7622 26.9775C24.6686 27.0259 24.3872 27.0904 24.137 27.1208C22.806 27.2823 22.6156 27.3358 22.3495 27.6225C21.6847 28.3387 22.4383 29.169 23.5388 28.9329H23.5388ZM47.2752 30.0919C45.7782 29.8571 45.0767 28.9965 45.0759 27.3936C45.0747 24.9647 46.515 23.3939 48.7332 23.4049C50.3871 23.4132 51.4155 24.1515 51.5299 25.4126L51.5596 25.7401H50.7024H49.8453L49.8083 25.5209C49.658 24.6318 48.4266 24.3862 47.6549 25.0915C46.835 25.8408 46.5332 27.7486 47.1235 28.4501C47.7118 29.1493 48.9187 28.8601 49.3669 27.9125L49.5081 27.6141H50.3608C51.3606 27.6141 51.3157 27.5642 50.9581 28.2786C50.2676 29.6579 48.8763 30.343 47.2752 30.0919ZM54.0246 30.1134C52.6141 29.9261 51.8199 29.2306 51.8199 28.1828V27.8897H52.6191H53.4183V28.0605C53.4183 28.6837 54.2453 29.118 55.0922 28.9395C55.5912 28.8342 55.8159 28.6019 55.8159 28.191C55.8159 27.7386 55.671 27.6338 54.555 27.2785C52.8044 26.7211 52.4684 26.4318 52.4578 25.4724C52.4445 24.2762 53.3776 23.5154 55.0092 23.3922C56.695 23.2649 57.7796 23.8996 57.9147 25.0924L57.9506 25.4094H57.1175C56.3157 25.4094 56.2844 25.4051 56.2844 25.2969C56.2844 25.1002 56.069 24.7536 55.8843 24.653C55.4264 24.4038 54.3991 24.5966 54.2486 24.9599C54.066 25.4006 54.2937 25.6006 55.3936 25.9653C57.1361 26.5432 57.5697 26.9357 57.5732 27.9378C57.5783 29.3901 55.9758 30.3726 54.0246 30.1134ZM39.1703 30.036C38.3567 29.9301 37.9322 29.5248 37.9328 28.8542C37.9329 28.7027 38.1139 27.7164 38.335 26.6625C38.5561 25.6087 38.7249 24.7344 38.7102 24.7196C38.6955 24.7049 38.4395 24.6928 38.1414 24.6928C37.8433 24.6928 37.6006 24.6742 37.6019 24.6515C37.6033 24.6288 37.6604 24.3745 37.7287 24.0865L37.8531 23.5629L38.4262 23.5354L38.9993 23.5078L39.1913 22.557L39.3834 21.6062H40.2552C40.7347 21.6062 41.127 21.6148 41.127 21.6252C41.127 21.6519 40.8039 23.2609 40.7684 23.4113C40.7393 23.5345 40.7436 23.5354 41.374 23.5354C41.7232 23.5354 42.0077 23.554 42.0064 23.5767C42.005 23.5994 41.9479 23.8537 41.8795 24.1417L41.7551 24.6653L41.1524 24.6811C40.821 24.6897 40.5313 24.7153 40.5088 24.7378C40.4124 24.8342 39.7511 28.2738 39.8028 28.4097C39.8995 28.6641 40.0896 28.7353 40.5819 28.7016C40.9054 28.6794 41.0184 28.6884 41.0013 28.7352C40.9884 28.7703 40.9207 29.0596 40.8508 29.3779C40.7809 29.6962 40.709 29.972 40.6911 29.9909C40.6361 30.0486 39.5214 30.0817 39.1703 30.036ZM13.1461 29.8601C13.1829 29.7127 14.4499 23.5869 14.4499 23.5564C14.4499 23.5448 14.8219 23.5354 15.2767 23.5354C16.2178 23.5354 16.1559 23.492 16.0211 24.0567C15.9223 24.4705 15.9184 24.4691 16.2568 24.1429C17.3091 23.1286 19.2981 23.1144 19.8594 24.1172C20.1971 24.7206 20.1844 24.8847 19.573 27.8041L19.1164 29.9842H18.2438C17.7638 29.9842 17.3711 29.9735 17.3711 29.9604C17.3711 29.9474 17.534 29.1599 17.733 28.2104C18.3288 25.3677 18.3314 25.3456 18.1086 25.0809C17.679 24.5703 16.7486 24.6838 16.177 25.3165C15.8033 25.7301 15.6809 26.1022 15.2582 28.1089L14.8633 29.9839L13.9892 29.984L13.1151 29.9841L13.1461 29.8601V29.8601ZM27.1821 29.9398C27.1821 29.9154 27.2579 29.5495 27.3506 29.1268C27.4432 28.7041 27.7278 27.3909 27.9829 26.2086C28.238 25.0263 28.6706 23.0226 28.9443 21.7559C29.218 20.4893 29.442 19.4416 29.442 19.4278C29.442 19.4139 29.2773 19.3279 29.076 19.2367C26.6108 18.1189 25.1097 15.2284 25.6139 12.5702C26.5595 7.58529 32.6326 5.73919 36.1348 9.37209C39.878 13.2552 37.1687 19.7456 31.7788 19.8073L31.1116 19.8149L30.83 21.1102C30.675 21.8226 30.1989 24.0176 29.7718 25.9881C29.3447 27.9586 28.9708 29.6638 28.9409 29.7775L28.8865 29.9842H28.0343C27.5656 29.9842 27.1821 29.9642 27.1821 29.9398ZM32.9971 18.6331C36.5089 17.7094 37.989 13.5061 35.8326 10.5805C33.3476 7.20929 28.038 8.10831 26.7755 12.1141C25.5736 15.9272 29.1275 19.6509 32.9971 18.6331ZM29.1113 14.248C29.1113 14.2328 29.1237 14.2204 29.1388 14.2204C29.154 14.2204 29.1664 14.2328 29.1664 14.248C29.1664 14.2631 29.154 14.2755 29.1388 14.2755C29.1237 14.2755 29.1113 14.2631 29.1113 14.248ZM41.6348 29.8601C41.6483 29.7919 41.9538 28.341 42.3136 26.6357L42.9679 23.5354H43.8388C44.3571 23.5354 44.7096 23.5567 44.7096 23.5882C44.7096 23.6172 44.6022 24.1443 44.4708 24.7594C44.3394 25.3746 44.0356 26.8017 43.7956 27.9308L43.3593 29.9837L42.4847 29.984L41.6102 29.9842L41.6348 29.8602V29.8601ZM43.1936 22.4192C43.2097 22.351 43.2804 22.0348 43.3506 21.7165L43.4783 21.1377L44.3684 21.1226C45.0699 21.1107 45.2536 21.1223 45.2358 21.1777C45.2233 21.2163 45.1599 21.496 45.0949 21.7991C45.0299 22.1023 44.9646 22.3937 44.9497 22.4468C44.9254 22.5335 44.8338 22.5432 44.0435 22.5432H43.1642L43.1936 22.4192ZM1.07121 18.2992C1.08255 18.2537 1.94532 14.1178 2.98847 9.10824L4.8851 0L8.00018 0.00100588C12.5552 0.00248304 13.5536 0.214136 14.7887 1.44011C16.5305 3.169 15.8734 7.03999 13.5795 8.56349C12.3209 9.39933 11.5283 9.5351 7.90065 9.53624C6.42499 9.53668 5.18837 9.5557 5.15261 9.57844C5.11684 9.60119 4.63604 11.5913 4.08416 14.0008L3.08073 18.3818H2.06566C1.19095 18.3818 1.05343 18.3704 1.07121 18.2992ZM11.2716 7.30945C12.7801 6.86435 13.7584 5.29902 13.5063 3.73386C13.2673 2.2494 12.158 1.81903 8.57043 1.81894L6.90749 1.81889L6.86924 1.99803C6.84821 2.09655 6.561 3.34058 6.23101 4.76254C5.90102 6.1845 5.63102 7.37054 5.63102 7.39819C5.63102 7.49981 10.9078 7.41679 11.2716 7.30945ZM6.01677 18.3712C6.01681 18.3653 6.15454 17.6956 6.32283 16.883C6.49112 16.0704 6.77617 14.6862 6.95629 13.807C7.1364 12.9279 7.29682 12.1528 7.31277 12.0846C7.34202 11.9596 8.99398 11.8783 8.99283 12.0019C8.99261 12.0247 8.94301 12.2495 8.88259 12.5015C8.74418 13.0789 8.7466 13.2044 8.89088 12.9308C9.14832 12.4427 9.76692 11.9944 10.3773 11.8537C10.6529 11.7902 11.5286 11.7753 11.5286 11.8341C11.5286 11.8555 11.4497 12.2408 11.3532 12.6903L11.1778 13.5076L10.9261 13.4644C10.1655 13.3339 9.55367 13.4874 9.12457 13.9165C8.61391 14.4272 8.50574 14.7378 8.02632 17.0702L7.76344 18.3492L6.89006 18.3655C6.40971 18.3745 6.01673 18.377 6.01677 18.3712ZM11.0876 18.3214C11.0877 18.2688 11.7455 15.1226 12.2422 12.7992C12.3348 12.3662 12.4105 12.0003 12.4105 11.9862C12.4105 11.9721 12.8103 11.9606 13.2988 11.9606C14.1176 11.9606 14.1852 11.9682 14.1624 12.057C14.1487 12.1101 13.842 13.5475 13.4807 15.2513L12.8239 18.3492L11.9557 18.3655C11.3533 18.3768 11.0876 18.3634 11.0876 18.3214ZM14.1192 18.3298C14.1192 18.3012 14.341 17.2099 14.6121 15.9046C14.8832 14.5994 15.1763 13.1842 15.2635 12.7598L15.4221 11.9882L16.2588 11.9729C16.719 11.9646 17.0947 11.977 17.0936 12.0005C17.0925 12.024 17.0557 12.1921 17.0118 12.374C16.8951 12.8571 16.9025 12.863 17.2242 12.5413C18.2722 11.4932 20.2771 11.5403 20.6613 12.622L20.7546 12.8847L20.9782 12.6437C21.9959 11.5469 23.971 11.5142 24.657 12.5828C24.8984 12.9588 24.932 13.4995 24.7642 14.3075C24.7017 14.6082 24.4885 15.6205 24.2904 16.557C24.0923 17.4935 23.9302 18.2798 23.9302 18.3043C23.9302 18.3289 23.5333 18.3564 23.0482 18.3654C22.5631 18.3744 22.1663 18.3714 22.1663 18.3588C22.1664 18.3461 22.3139 17.6268 22.4942 16.7603C23.1174 13.7661 23.1092 13.8204 22.9778 13.5607C22.7021 13.0158 21.8453 13.0504 21.2659 13.6298C20.8339 14.0619 20.7147 14.4055 20.2784 16.478L19.8845 18.3492L19.0135 18.3655C18.3662 18.3776 18.1427 18.3649 18.1427 18.316C18.1428 18.2534 18.5434 16.2939 18.8336 14.937C19.0348 13.9961 19.049 13.8342 18.9511 13.5999C18.6961 12.9896 17.7343 13.0405 17.1597 13.6949C16.7345 14.1792 16.6332 14.5222 15.9949 17.6377C15.9297 17.956 15.8657 18.2537 15.8527 18.2992C15.8252 18.3957 14.1192 18.4258 14.1192 18.3298ZM12.5803 11.2027C12.5827 11.1497 12.651 10.821 12.7319 10.4724L12.879 9.83855L13.7471 9.82337C14.4591 9.81092 14.6152 9.82198 14.6152 9.88486C14.6152 9.98563 14.3417 11.1962 14.3058 11.2542C14.2426 11.3565 12.5755 11.3068 12.5803 11.2027Z" fill="#CCCCCC"/>
</svg>

<?xml version="1.0" encoding="UTF-8" standalone="no"?><!DOCTYPE svg PUBLIC "-//W3C//DTD SVG 1.1//EN" "http://www.w3.org/Graphics/SVG/1.1/DTD/svg11.dtd"><svg width="100%" height="100%" viewBox="0 0 58 35" version="1.1" xmlns="http://www.w3.org/2000/svg" xmlns:xlink="http://www.w3.org/1999/xlink" xml:space="preserve" xmlns:serif="http://www.serif.com/" style="fill-rule:evenodd;clip-rule:evenodd;stroke-linejoin:round;stroke-miterlimit:2;"><path d="M0.107,34.821c0.059,-0.099 0.592,-1.072 1.184,-2.164c0.593,-1.091 1.744,-3.212 2.56,-4.712c0.816,-1.501 2.213,-4.074 3.106,-5.719l1.623,-2.99l2.323,0l0.397,2.77c0.916,6.395 1.825,12.701 1.851,12.842l0.028,0.152l-2.348,-0l-0.236,-1.658c-0.13,-0.911 -0.249,-1.705 -0.264,-1.764c-0.027,-0.104 -0.101,-0.106 -2.979,-0.092l-2.952,0.014l-1.984,3.5l-2.416,-0l0.107,-0.179Zm9.94,-5.468c0.031,-0.031 -0.794,-6.68 -0.833,-6.717c-0.015,-0.014 -0.429,0.71 -0.92,1.608c-0.49,0.899 -1.306,2.39 -1.812,3.315c-0.506,0.925 -0.932,1.712 -0.946,1.75c-0.026,0.067 4.444,0.111 4.511,0.044Zm20.12,2.853c-0.241,-0.015 -0.341,-0.043 -0.325,-0.089c0.014,-0.036 0.083,-0.37 0.154,-0.742l0.129,-0.675l0.279,0.042c0.648,0.097 0.996,0.005 1.279,-0.339c0.377,-0.459 0.397,-0.144 -0.236,-3.643c-0.312,-1.728 -0.569,-3.161 -0.57,-3.183c-0.001,-0.023 0.402,-0.042 0.896,-0.042l0.898,0l0.265,2.246c0.146,1.236 0.277,2.284 0.292,2.329c0.027,0.084 0.448,-0.757 1.939,-3.872l0.336,-0.703l0.916,0c0.741,0 0.911,0.014 0.888,0.074c-0.015,0.04 -0.36,0.667 -0.767,1.392c-0.406,0.725 -1.345,2.404 -2.086,3.731c-1.469,2.632 -1.607,2.847 -2.001,3.112c-0.459,0.308 -1.235,0.431 -2.286,0.362Zm-8.23,-2.113c-1.296,-0.219 -1.897,-1.386 -1.318,-2.562c0.399,-0.81 1.134,-1.146 2.898,-1.322c1.542,-0.155 1.847,-0.32 1.775,-0.958c-0.11,-0.979 -2.136,-0.923 -2.384,0.065l-0.037,0.148l-1.65,0l0.036,-0.179c0.292,-1.434 2.153,-2.249 4.134,-1.809c1.622,0.359 1.798,0.973 1.127,3.918c-0.289,1.269 -0.346,1.603 -0.351,2.053l-0.005,0.537l-0.868,0l-0.868,0l0,-0.618l-0.204,0.18c-0.52,0.457 -1.472,0.684 -2.285,0.547Zm1.602,-1.16c0.589,-0.127 0.939,-0.525 1.227,-1.396c0.227,-0.691 0.227,-0.679 -0.004,-0.56c-0.093,0.049 -0.375,0.113 -0.625,0.144c-1.331,0.161 -1.521,0.215 -1.788,0.501c-0.664,0.717 0.089,1.547 1.19,1.311Zm23.736,1.159c-1.497,-0.235 -2.198,-1.096 -2.199,-2.698c-0.001,-2.429 1.439,-4 3.657,-3.989c1.654,0.008 2.682,0.746 2.797,2.008l0.03,0.327l-1.715,0l-0.037,-0.219c-0.15,-0.889 -1.381,-1.135 -2.153,-0.43c-0.82,0.75 -1.122,2.658 -0.532,3.359c0.589,0.699 1.796,0.41 2.244,-0.538l0.141,-0.298l0.853,0c1,0 0.955,-0.05 0.597,0.665c-0.69,1.379 -2.082,2.064 -3.683,1.813Zm6.75,0.021c-1.411,-0.187 -2.205,-0.882 -2.205,-1.93l-0,-0.293l1.598,-0l0,0.17c0,0.624 0.827,1.058 1.674,0.879c0.499,-0.105 0.724,-0.337 0.724,-0.748c-0,-0.452 -0.145,-0.557 -1.261,-0.913c-1.751,-0.557 -2.087,-0.846 -2.097,-1.806c-0.014,-1.196 0.92,-1.957 2.551,-2.08c1.686,-0.127 2.771,0.508 2.906,1.7l0.036,0.317l-0.834,0c-0.801,0 -0.833,-0.004 -0.833,-0.112c0,-0.197 -0.215,-0.543 -0.4,-0.644c-0.458,-0.249 -1.485,-0.056 -1.635,0.307c-0.183,0.441 0.045,0.641 1.145,1.005c1.742,0.578 2.176,0.971 2.179,1.973c0.005,1.452 -1.597,2.435 -3.548,2.175Zm-14.855,-0.077c-0.813,-0.106 -1.238,-0.511 -1.237,-1.182c-0,-0.151 0.181,-1.138 0.402,-2.192c0.221,-1.053 0.39,-1.928 0.375,-1.942c-0.014,-0.015 -0.27,-0.027 -0.569,-0.027c-0.298,-0 -0.54,-0.019 -0.539,-0.042c0.001,-0.022 0.058,-0.276 0.127,-0.564l0.124,-0.524l0.573,-0.028l0.573,-0.027l0.192,-0.951l0.192,-0.951l0.872,0c0.48,0 0.872,0.009 0.872,0.019c0,0.027 -0.323,1.636 -0.359,1.786c-0.029,0.124 -0.024,0.124 0.606,0.124c0.349,0 0.634,0.019 0.632,0.042c-0.001,0.022 -0.058,0.277 -0.127,0.565l-0.124,0.523l-0.603,0.016c-0.331,0.009 -0.621,0.034 -0.643,0.057c-0.097,0.096 -0.758,3.536 -0.706,3.672c0.097,0.254 0.287,0.325 0.779,0.292c0.323,-0.023 0.436,-0.014 0.419,0.033c-0.013,0.035 -0.08,0.325 -0.15,0.643c-0.07,0.318 -0.142,0.594 -0.16,0.613c-0.055,0.058 -1.17,0.091 -1.521,0.045Zm-26.024,-0.176c0.037,-0.147 1.304,-6.273 1.304,-6.304c-0,-0.011 0.372,-0.021 0.827,-0.021c0.941,0 0.879,-0.043 0.744,0.522c-0.099,0.413 -0.103,0.412 0.236,0.086c1.052,-1.014 3.041,-1.029 3.602,-0.026c0.338,0.604 0.325,0.768 -0.286,3.687l-0.457,2.18l-0.872,0c-0.48,0 -0.873,-0.011 -0.873,-0.024c0,-0.013 0.163,-0.8 0.362,-1.75c0.596,-2.842 0.598,-2.864 0.376,-3.129c-0.43,-0.511 -1.36,-0.397 -1.932,0.236c-0.374,0.413 -0.496,0.785 -0.919,2.792l-0.395,1.875l-1.748,0l0.031,-0.124Zm14.036,0.08c0,-0.025 0.076,-0.391 0.169,-0.813c0.092,-0.423 0.377,-1.736 0.632,-2.918c0.255,-1.183 0.688,-3.186 0.961,-4.453c0.274,-1.267 0.498,-2.314 0.498,-2.328c0,-0.014 -0.165,-0.1 -0.366,-0.191c-2.465,-1.118 -3.966,-4.009 -3.462,-6.667c0.946,-4.985 7.019,-6.831 10.521,-3.198c3.743,3.883 1.034,10.374 -4.356,10.435l-0.667,0.008l-0.282,1.295c-0.155,0.713 -0.631,2.908 -1.058,4.878c-0.427,1.971 -0.801,3.676 -0.831,3.789l-0.054,0.207l-0.853,0c-0.468,0 -0.852,-0.02 -0.852,-0.044Zm5.815,-11.307c3.512,-0.924 4.992,-5.127 2.836,-8.053c-2.485,-3.371 -7.795,-2.472 -9.057,1.534c-1.202,3.813 2.352,7.537 6.221,6.519Zm-3.886,-4.385c0,-0.015 0.013,-0.028 0.028,-0.028c0.015,0 0.027,0.013 0.027,0.028c0,0.015 -0.012,0.027 -0.027,0.027c-0.015,0 -0.028,-0.012 -0.028,-0.027Zm12.524,15.612c0.013,-0.068 0.319,-1.519 0.679,-3.224l0.654,-3.101l0.871,0c0.518,0 0.871,0.022 0.871,0.053c-0,0.029 -0.108,0.556 -0.239,1.171c-0.132,0.616 -0.435,2.043 -0.675,3.172l-0.437,2.053l-0.874,-0l-0.875,0l0.025,-0.124l-0,0Zm1.559,-7.441c0.016,-0.068 0.086,-0.384 0.157,-0.703l0.127,-0.578l0.89,-0.015c0.702,-0.012 0.886,-0.001 0.868,0.055c-0.013,0.038 -0.076,0.318 -0.141,0.621c-0.065,0.303 -0.13,0.595 -0.145,0.648c-0.025,0.086 -0.116,0.096 -0.907,0.096l-0.879,0l0.03,-0.124Zm-42.123,-4.12c0.012,-0.045 0.874,-4.181 1.917,-9.191l1.897,-9.108l3.115,0.001c4.555,0.001 5.554,0.213 6.789,1.439c1.741,1.729 1.084,5.6 -1.21,7.123c-1.258,0.836 -2.051,0.972 -5.678,0.973c-1.476,0.001 -2.713,0.02 -2.748,0.042c-0.036,0.023 -0.517,2.013 -1.069,4.423l-1.003,4.381l-1.015,-0c-0.875,-0 -1.013,-0.012 -0.995,-0.083Zm10.201,-10.99c1.508,-0.445 2.486,-2.01 2.234,-3.575c-0.239,-1.485 -1.348,-1.915 -4.936,-1.915l-1.663,-0l-0.038,0.179c-0.021,0.099 -0.308,1.343 -0.638,2.765c-0.33,1.421 -0.6,2.608 -0.6,2.635c0,0.102 5.277,0.019 5.641,-0.089Zm-5.255,11.062c-0,-0.006 0.138,-0.675 0.306,-1.488c0.168,-0.813 0.453,-2.197 0.633,-3.076c0.18,-0.879 0.341,-1.654 0.357,-1.722c0.029,-0.125 1.681,-0.207 1.68,-0.083c-0,0.023 -0.05,0.247 -0.11,0.499c-0.139,0.578 -0.136,0.703 0.008,0.43c0.257,-0.488 0.876,-0.937 1.486,-1.077c0.276,-0.064 1.152,-0.079 1.152,-0.02c-0,0.021 -0.079,0.407 -0.176,0.856l-0.175,0.818l-0.252,-0.044c-0.761,-0.13 -1.372,0.023 -1.801,0.452c-0.511,0.511 -0.619,0.822 -1.099,3.154l-0.263,1.279l-0.873,0.016c-0.48,0.009 -0.873,0.012 -0.873,0.006Zm5.071,-0.05c-0,-0.052 0.657,-3.198 1.154,-5.522c0.093,-0.433 0.168,-0.799 0.168,-0.813c0,-0.014 0.4,-0.025 0.889,-0.025c0.819,-0 0.886,0.007 0.863,0.096c-0.013,0.053 -0.32,1.49 -0.681,3.194l-0.657,3.098l-0.868,0.016c-0.603,0.012 -0.868,-0.002 -0.868,-0.044Zm3.031,0.009c0,-0.029 0.222,-1.12 0.493,-2.425c0.271,-1.306 0.564,-2.721 0.651,-3.145l0.159,-0.772l0.837,-0.015c0.46,-0.008 0.836,0.004 0.835,0.027c-0.002,0.024 -0.038,0.192 -0.082,0.374c-0.117,0.483 -0.11,0.489 0.212,0.167c1.048,-1.048 3.053,-1.001 3.437,0.081l0.094,0.263l0.223,-0.241c1.018,-1.097 2.993,-1.13 3.679,-0.061c0.241,0.376 0.275,0.916 0.107,1.724c-0.062,0.301 -0.276,1.313 -0.474,2.25c-0.198,0.936 -0.36,1.723 -0.36,1.747c0,0.025 -0.397,0.052 -0.882,0.061c-0.485,0.009 -0.882,0.006 -0.882,-0.006c0,-0.013 0.148,-0.732 0.328,-1.599c0.623,-2.994 0.615,-2.94 0.484,-3.199c-0.276,-0.545 -1.133,-0.511 -1.712,0.069c-0.432,0.432 -0.551,0.775 -0.988,2.848l-0.394,1.871l-0.871,0.016c-0.647,0.013 -0.87,-0 -0.87,-0.049c-0,-0.063 0.4,-2.022 0.691,-3.379c0.201,-0.941 0.215,-1.103 0.117,-1.337c-0.255,-0.61 -1.217,-0.56 -1.791,0.095c-0.426,0.484 -0.527,0.827 -1.165,3.943c-0.065,0.318 -0.129,0.616 -0.142,0.661c-0.028,0.097 -1.734,0.127 -1.734,0.031Zm-1.539,-7.127c0.003,-0.053 0.071,-0.382 0.152,-0.731l0.147,-0.633l0.868,-0.016c0.712,-0.012 0.868,-0.001 0.868,0.062c0,0.101 -0.273,1.311 -0.309,1.369c-0.063,0.102 -1.731,0.053 -1.726,-0.051Z" style="fill:#b2b2b2;fill-rule:nonzero;"/></svg>
